fs/mention_brackets_20_regular.svg

<svg viewBox="0 0 20 20" fill="none" xmlns="http://www.w3.org/2000/svg" height="1em" width="1em">
  <path d="M4.5 3C3.67157 3 3 3.67157 3 4.5V15.5C3 16.3284 3.67157 17 4.5 17H6.5C6.77614 17 7 17.2239 7 17.5C7 17.7761 6.77614 18 6.5 18H4.5C3.11929 18 2 16.8807 2 15.5V4.5C2 3.11929 3.11929 2 4.5 2H6.5C6.77614 2 7 2.22386 7 2.5C7 2.77614 6.77614 3 6.5 3H4.5ZM15.5 17C16.3284 17 17 16.3284 17 15.5V4.5C17 3.67157 16.3284 3 15.5 3H13.5C13.2239 3 13 2.77614 13 2.5C13 2.22386 13.2239 2 13.5 2H15.5C16.8807 2 18 3.11929 18 4.5V15.5C18 16.8807 16.8807 18 15.5 18H13.5C13.2239 18 13 17.7761 13 17.5C13 17.2239 13.2239 17 13.5 17H15.5ZM11.5 10C11.5 9.17157 10.8284 8.5 10 8.5C9.17157 8.5 8.5 9.17157 8.5 10C8.5 10.8284 9.17157 11.5 10 11.5C10.8284 11.5 11.5 10.8284 11.5 10ZM10 7.5C10.5628 7.5 11.0822 7.68597 11.5 7.99982C11.5001 7.72376 11.7239 7.5 12 7.5C12.2761 7.5 12.5 7.72386 12.5 8V10.75C12.5 11.1642 12.8358 11.5 13.25 11.5C13.6642 11.5 14 11.1642 14 10.75V10C14 7.79086 12.2091 6 10 6C7.79086 6 6 7.79086 6 10C6 12.129 7.66335 13.8696 9.76143 13.993L9.7575 14L9.78337 13.9942C9.85509 13.9981 9.92732 14 10 14C10.4494 14 10.9265 13.9159 11.3607 13.7723C11.6592 13.6736 12 13.8814 12 14.1957C12 14.4315 11.8613 14.6481 11.6385 14.7253C11.1252 14.9033 10.5739 15 10 15C7.23858 15 5 12.7614 5 10C5 7.23858 7.23858 5 10 5C12.7614 5 15 7.23858 15 10V10.75C15 11.7165 14.2165 12.5 13.25 12.5C12.6479 12.5 12.1168 12.1959 11.8019 11.7329C11.3471 12.2058 10.7079 12.5 10 12.5C8.61929 12.5 7.5 11.3807 7.5 10C7.5 8.61929 8.61929 7.5 10 7.5Z" fill="#212121"/>
</svg>

<svg viewBox="0 0 20 20" fill="none" xmlns="http://www.w3.org/2000/svg" height="1em" width="1em">
  <path d="M4.5 3A1.5 1.5 0 0 0 3 4.5v11A1.5 1.5 0 0 0 4.5 17h2a.5.5 0 0 1 0 1h-2A2.5 2.5 0 0 1 2 15.5v-11A2.5 2.5 0 0 1 4.5 2h2a.5.5 0 0 1 0 1h-2Zm11 14a1.5 1.5 0 0 0 1.5-1.5v-11A1.5 1.5 0 0 0 15.5 3h-2a.5.5 0 0 1 0-1h2A2.5 2.5 0 0 1 18 4.5v11a2.5 2.5 0 0 1-2.5 2.5h-2a.5.5 0 0 1 0-1h2Zm-4-7a1.5 1.5 0 1 0-3 0 1.5 1.5 0 0 0 3 0ZM10 7.5c.563 0 1.082.186 1.5.5a.5.5 0 0 1 1 0v2.75a.75.75 0 0 0 1.5 0V10a4 4 0 1 0-4.239 3.993L9.758 14l.025-.006c.072.004.144.006.217.006.45 0 .927-.084 1.36-.228.3-.098.64.11.64.424a.552.552 0 0 1-.361.53A5 5 0 1 1 15 10v.749a1.75 1.75 0 0 1-3.198.983A2.5 2.5 0 1 1 10 7.5Z" fill="#212121"/>
</svg>
